art/logos/quake3.svg

<svg xmlns="http://www.w3.org/2000/svg" viewBox="0 0 1063 231"><g fill="#eae5e7"><path d="M606.56 0h2.5q-.03.48-.16.65-21.83 27.87-43.18 56.11-.32.42.15.66c27.62 14.1 39.23 39.98 36.66 70.63a.8.79-46.7 0 1-1.58.05c-4.58-32.49-33.68-53.99-62.7-64.34q-.54-.2-.11-.59zM349.75 93.01c-3.46 5.68-10.52 19.68-8.72 26.28q1 3.64 4.65 5.88.95.58-.17.58h-26.43a.27.26-64.2 0 1-.16-.47c11.72-9.33 20.31-22.86 26.42-35.45q21.08-43.43 38.2-88.66a.44.44 0 0 1 .82-.01q21.2 51.58 45.23 102.06c5.13 10.77 9.53 17.01 19.56 21.95a.31.31 0 0 1-.14.58h-37.5q-.7 0-.09-.33c4.95-2.72 5.35-6.89 3.41-12.04-2.89-7.67-8.02-21.1-15.41-25.37-3.64-2.1-9.43-1.7-13.74-1.97q-.75-.04-.31-.65.7-.95 1.57-1.23c6.55-2.04 12.13-3.69 8.47-12.11q-6.1-14.04-12.06-28.12-1.95-4.62-4.86-7.27a1.96 1.96 0 0 0-3.07.56q-7.48 14.89-14.18 29.74c-2.36 5.22-5.11 13.34 1.36 16.67 1.76.9 4.47.74 6.66 1.46a.48.48 0 0 1-.1.93c-6.99.61-15.18.06-19.41 6.99M689.94 2.06c-6.22 4.29-8.87 8.08-8.91 15.55q-.16 26.06.02 34.32.11 4.9 3.96 8.73.43.43 1.03.53l13.71 2.19q1.46.23-.01.36c-10.1.92-18.39 3.29-18.66 15.25-.42 18.84 1.32 38.16 22.07 45.28a.37.37 0 0 1-.17.72q-24.47-3.05-36.58-23.42c-3.49-5.87-4.38-11.02-4.39-18.41q0-32.67-.03-65.34c-.01-7.01-6.16-12.92-12.1-15.78a.28.28 0 0 1 .12-.54h39.76q.99 0 .18.56M755.34 39.27c-6.6-19.31-21.54-30.98-40.44-37.23a.28.28 0 0 1 .09-.54h40a.49.49 0 0 1 .49.49l.06 37.25a.1.1 0 0 1-.2.03M894.78 2.09c-5.57 2.6-8.02 9.44-8.02 15.18q-.03 47.11-.08 94.24 0 8.91 7.19 13.78.57.38-.12.39l-33.26.58a.24.24 0 0 1-.11-.46c6.92-3.19 8.1-8.39 8.1-16.03q.04-48.26-.05-96.52c-.01-6.25-2.97-8.4-8.07-11.25q-.91-.5.13-.5h34.16a.31.31 0 0 1 .13.59M978.16 1.99c-5.74 3.96-7.96 9.39-7.91 16.18q.29 42.42.54 84.82c.07 10.88-.97 16.42 6.54 22.39q.37.3-.1.31l-33.22.56q-.76.02-.1-.35c7.53-4.12 8.55-9.77 8.56-18.47q.08-46.09.09-92.18 0-9.66-8.85-13.25a.26.26 0 0 1 .1-.5h34.2q.87 0 .15.49M1061.69 2.11c-4.64 2.92-7.43 8.79-7.43 13.85q-.03 47.47.01 94.94c0 6.44 1.42 10.41 6.21 14.17q.76.59-.2.61l-32.28.58q-.92.02-.11-.41 8.06-4.17 8.08-13.16.08-48.95-.07-97.88-.02-9.1-7.99-12.85-.97-.46.1-.46h33.5q1.15 0 .18.61M522.62 2.73c-5.1 2.85-6.85 9.24-6.86 14.78q-.02 13.45-.01 26.95 0 6.25.84 8.52c1.95 5.3 8.52 8.43 13.8 9.97a.54.54 0 0 1-.02 1.05c-11.06 2.65-15.13 10.52-15.12 21.14v23.91c0 7.92.94 11.03 6.61 15.95q.28.25-.1.25h-33.5q-.87 0-.08-.36 8.53-3.92 8.54-12.9.05-48.74.03-97.5-.01-6.96-5.96-11.67-.73-.57.2-.57h31.51q.98 0 .12.48M219.81 126.35a.09.09 0 0 1-.03.17c-13.24-.67-23.33-4.37-31.79-14.89q-10.02-12.47-10-29.63.04-34.88.02-69.75 0-5.56-4.2-8.96-.66-.54.19-.54h29.01q1.02 0 .17.57c-4.23 2.83-5.68 5.86-5.68 11.18q0 39.39.01 78.75c0 6.93.95 14.85 4.91 20.63q6.18 9.05 17.39 12.47M282.8 21.82q-.38 28.46-.57 56.93c-.09 14.29-1.17 25.72-12.18 36.05-9.61 9.01-17.55 11.96-30.73 12.26q-.3.01-.01-.07c14.24-3.79 23.22-14.9 23.29-29.81q.19-39.08.11-78.18c-.01-6.14-.23-11.53-5.4-15.71q-.67-.54.19-.54h29.75q.98 0 .17.56c-6.82 4.75-4.53 11.53-4.62 18.51M71.82 107.08c21.75-3.98 39.28-18.75 44.16-40.38 5.65-25.03-7.46-48.08-27.72-62.17a.16.16 0 0 1 .16-.28c10.89 4.41 20.07 11.05 26.41 21.11 25.42 40.35 4.42 93.76-43.02 101.84q-.58.1-.57.68c.08 7.11.53 14-1.26 21.01-2.77 10.82-3.89 22.92-5.75 33.19q-.22 1.23-.49.01-3.95-18.26-8.29-36.36c-1.43-5.95-.91-11.77-.97-17.83q0-.53-.52-.63C19.97 120.7-3.18 89.24 1.32 55.03c2.85-21.69 13.24-41.44 34.66-49.6q.99-.37.12.24C20.27 16.96 9.31 34.19 9.02 53.78c-.4 27.89 18.49 47.07 44.84 53.36q.55.13.56-.44.23-10.12.14-19.92-.04-4.46-4.09-5.38a.36.36 0 0 1 .01-.7q12.8-2.38 25.58.18a.35.35 0 0 1 .04.67c-6.69 2.18-5.05 19.71-4.73 25.18q.03.43.45.35M761.17 82.64a.31.3-32.2 0 1 .58.13v43.71q0 .55-.44.22-8.24-6.16-17.91-3.7c-7.29 1.85-14.32 2.11-21.8 2.06q-.08 0 0-.02c18.56-5.85 31.45-25.5 39.57-42.4M336.56 190.45a.85.82 26.7 0 0-1.15.36q-3.42 7.07-6.46 14.15-1.33 3.11 1.55 4.42.43.19.9.14.62-.07 1.04.29.54.48-.18.44c-2.94-.15-5.3.35-6.98 3.04-2.01 3.22-5.76 9.67-1.67 12.66a.3.3 0 0 1-.18.54l-9.68.01q-.65 0-.2-.47 5.19-5.63 9.39-13.59 9.1-17.25 15.53-35.42a.39.39 0 0 1 .73-.02c4.34 9.89 8.25 19.46 13.16 29.56 3.63 7.45 4.8 14.7 12.31 19.25a.26.25-28.9 0 1-.14.47l-13.85.02q-.6 0-.25-.49c3.19-4.37-3.26-16.37-9.57-15.26q-6.13 1.08-.05-1.04c3.03-1.06 3.43-2.09 2.37-5.16-.78-2.26-4.82-12.96-6.62-13.9M413.45 216.89q.12-17.19.1-34.39-.01-2.55-2.35-4.98a.3.3 0 0 1 .21-.51l15.31-.13q.07 0 .05.06-.05.14-.09.27-.02.07-.1.09c-8.15 1.92-5.85 10.75-5.83 16.87.02 3.55 1.75 5.07 5.01 5.62a.52.52 0 0 1 .06 1.01c-7.18 2.13-5.1 13.15-5.05 18.86.01 1.99 1 3.12 2.59 4.02a.56.56 0 0 1-.28 1.05l-14.08.03q-1.85 0-.11-.63c3.61-1.3 4.54-3.37 4.56-7.24M515.15 207.91c-.33 7.41.88 14.81 8.61 17.28q.71.23.02.51-.44.18-1 .07c-8.18-1.6-15.32-7.58-15.29-16.31q.04-12.66-.01-25.37c-.02-3.55-1.21-4.88-3.93-6.66q-.73-.47.14-.47h14.36q.83 0 .15.49c-4.66 3.37-2.97 13.89-2.92 19.04.04 4.8 3.77 3.97 7.01 5.03q1.67.54-.08.43c-4.14-.24-6.86 1.6-7.06 5.96M529.97 176.91l14.65.08q.63.01.63.63v12.87q0 .98-.4.09c-3.13-6.89-8.22-10.41-14.96-13.25q-1.03-.43.08-.42M602.54 189.52q-.11 15.43-.08 30.98 0 3.58 3.23 4.76a.51.51 0 0 1-.18.99l-9.21-.01a.29.29 0 0 1-.12-.55q3.06-1.47 3.07-4.94.04-19.12.04-38.25 0-3.36-2.68-5.04a.3.3 0 0 1 .16-.55l14.05.07q.44 0 .11.29l-2.34 2.02q-.62.54-.11 1.18l24.12 30.18a.24.24 0 0 0 .42-.15l-.03-28.73q0-.45-.28-.8-1.99-2.47-5.3-3.31-.39-.1-.48-.42-.1-.34.26-.34l11.6.09a.35.35 0 0 1 .23.61c-1.94 1.69-2.5 3.82-2.5 6.54q-.04 22.74-.02 45.42a.25.25 0 0 1-.44.15l-32.87-40.42a.37.37 0 0 0-.65.23M689.12 224.21q6.49-7.25 10.47-16.14 6.95-15.53 13.57-31.26a.2.2 0 0 1 .36 0q8.45 19.81 17.43 39.42c2.06 4.48 3.87 6.99 7.72 9.56a.28.27-27.7 0 1-.16.5h-14.05q-.61 0-.13-.38c1.78-1.37 2.02-2.77 1.13-4.9-1.28-3.08-2.56-7.01-5.23-9.1-1.54-1.21-3.86-1.23-5.8-1.81q-.75-.22 0-.45l2.35-.74a2.1 2.1 0 0 0 1.37-2.69c-.69-2.01-5.9-15.82-7.34-15.78a1.32.56 2.7 0 0-1.11.41q-2.78 6.35-5.86 12.47c-1.24 2.48-1.47 6.23 2.48 6.22q.25 0 .35.24l.1.28q.06.19-.13.18c-2.84-.11-5.3.25-6.92 2.93-2.12 3.51-5.56 9.1-2.16 12.63q.68.7-.29.7h-9.75q-.55 0-.31-.5c.39-.78 1.43-1.25 1.91-1.79M441.91 199.36c10.34 6.27 13.1 16.56 13.34 27.96a.35.35 0 0 1-.68.1q-5.64-20.68-26.1-27.01-.45-.14 0-.27 5.42-1.56 9.08-5.09c7.38-7.1.67-16.41-7.82-17.34a.19.19 0 0 1-.02-.38q8.45-1.67 13.84 3.23c6.09 5.55 5.49 13.63-1.64 18.08q-.59.36 0 .72M547.35 209.89q.3 8.21.11 16.09-.02.74-.63.31c-3.84-2.77-11.1-.04-15.73.12a.29.29 0 0 1-.08-.57c7.58-1.9 12.42-9.63 15.81-16.07q.48-.92.52.12"/></g></svg>

<?xml version="1.0" encoding="UTF-8" standalone="no"?>
<!DOCTYPE svg PUBLIC "-//W3C//DTD SVG 1.1//EN" "http://www.w3.org/Graphics/SVG/1.1/DTD/svg11.dtd">
<svg xmlns="http://www.w3.org/2000/svg" version="1.1" viewBox="0.00 0.00 1063.00 231.00">
<g fill="#eae5e7">
<path d="
  M 606.56 0.00
  L 609.06 0.00
  Q 609.03 0.48 608.90 0.65
  Q 587.07 28.52 565.72 56.76
  Q 565.40 57.18 565.87 57.42
  C 593.49 71.52 605.10 97.40 602.53 128.05
  A 0.80 0.79 -46.7 0 1 600.95 128.10
  C 596.37 95.61 567.27 74.11 538.25 63.76
  Q 537.71 63.56 538.14 63.17
  L 606.56 0.00
  Z"
/>
<path d="
  M 349.75 93.01
  C 346.29 98.69 339.23 112.69 341.03 119.29
  Q 342.03 122.93 345.68 125.17
  Q 346.63 125.75 345.51 125.75
  L 319.08 125.75
  A 0.27 0.26 -64.2 0 1 318.92 125.28
  C 330.64 115.95 339.23 102.42 345.34 89.83
  Q 366.42 46.40 383.54 1.17
  A 0.44 0.44 0.0 0 1 384.36 1.16
  Q 405.56 52.74 429.59 103.22
  C 434.72 113.99 439.12 120.23 449.15 125.17
  A 0.31 0.31 0.0 0 1 449.01 125.75
  L 411.51 125.75
  Q 410.81 125.75 411.42 125.42
  C 416.37 122.70 416.77 118.53 414.83 113.38
  C 411.94 105.71 406.81 92.28 399.42 88.01
  C 395.78 85.91 389.99 86.31 385.68 86.04
  Q 384.93 86.00 385.37 85.39
  Q 386.07 84.44 386.94 84.16
  C 393.49 82.12 399.07 80.47 395.41 72.05
  Q 389.31 58.01 383.35 43.93
  Q 381.40 39.31 378.49 36.66
  A 1.96 1.96 0.0 0 0 375.42 37.22
  Q 367.94 52.11 361.24 66.96
  C 358.88 72.18 356.13 80.30 362.60 83.63
  C 364.36 84.53 367.07 84.37 369.26 85.09
  A 0.48 0.48 0.0 0 1 369.16 86.02
  C 362.17 86.63 353.98 86.08 349.75 93.01
  Z"
/>
<path d="
  M 689.94 2.06
  C 683.72 6.35 681.07 10.14 681.03 17.61
  Q 680.87 43.67 681.05 51.93
  Q 681.16 56.83 685.01 60.66
  Q 685.44 61.09 686.04 61.19
  L 699.75 63.38
  Q 701.21 63.61 699.74 63.74
  C 689.64 64.66 681.35 67.03 681.08 78.99
  C 680.66 97.83 682.40 117.15 703.15 124.27
  A 0.37 0.37 0.0 0 1 702.98 124.99
  Q 678.51 121.94 666.40 101.57
  C 662.91 95.70 662.02 90.55 662.01 83.16
  Q 662.01 50.49 661.98 17.82
  C 661.97 10.81 655.82 4.90 649.88 2.04
  A 0.28 0.28 0.0 0 1 650.00 1.50
  L 689.76 1.50
  Q 690.75 1.50 689.94 2.06
  Z"
/>
<path d="
  M 755.34 39.27
  C 748.74 19.96 733.80 8.29 714.90 2.04
  A 0.28 0.28 0.0 0 1 714.99 1.50
  L 754.99 1.50
  A 0.49 0.49 0.0 0 1 755.48 1.99
  L 755.54 39.24
  A 0.10 0.10 0.0 0 1 755.34 39.27
  Z"
/>
<path d="
  M 894.78 2.09
  C 889.21 4.69 886.76 11.53 886.76 17.27
  Q 886.73 64.38 886.68 111.51
  Q 886.68 120.42 893.87 125.29
  Q 894.44 125.67 893.75 125.68
  L 860.49 126.26
  A 0.24 0.24 0.0 0 1 860.38 125.80
  C 867.30 122.61 868.48 117.41 868.48 109.77
  Q 868.52 61.51 868.43 13.25
  C 868.42 7.00 865.46 4.85 860.36 2.00
  Q 859.45 1.50 860.49 1.50
  L 894.65 1.50
  A 0.31 0.31 0.0 0 1 894.78 2.09
  Z"
/>
<path d="
  M 978.16 1.99
  C 972.42 5.95 970.20 11.38 970.25 18.17
  Q 970.54 60.59 970.79 102.99
  C 970.86 113.87 969.82 119.41 977.33 125.38
  Q 977.70 125.68 977.23 125.69
  L 944.01 126.25
  Q 943.25 126.27 943.91 125.90
  C 951.44 121.78 952.46 116.13 952.47 107.43
  Q 952.55 61.34 952.56 15.25
  Q 952.56 5.59 943.71 2.00
  A 0.26 0.26 0.0 0 1 943.81 1.50
  L 978.01 1.50
  Q 978.88 1.50 978.16 1.99
  Z"
/>
<path d="
  M 1061.69 2.11
  C 1057.05 5.03 1054.26 10.90 1054.26 15.96
  Q 1054.23 63.43 1054.27 110.90
  C 1054.27 117.34 1055.69 121.31 1060.48 125.07
  Q 1061.24 125.66 1060.28 125.68
  L 1028.00 126.26
  Q 1027.08 126.28 1027.89 125.85
  Q 1035.95 121.68 1035.97 112.69
  Q 1036.05 63.74 1035.90 14.81
  Q 1035.88 5.71 1027.91 1.96
  Q 1026.94 1.50 1028.01 1.50
  L 1061.51 1.50
  Q 1062.66 1.50 1061.69 2.11
  Z"
/>
<path d="
  M 522.62 2.73
  C 517.52 5.58 515.77 11.97 515.76 17.51
  Q 515.74 30.96 515.75 44.46
  Q 515.75 50.71 516.59 52.98
  C 518.54 58.28 525.11 61.41 530.39 62.95
  A 0.54 0.54 0.0 0 1 530.37 64.00
  C 519.31 66.65 515.24 74.52 515.25 85.14
  Q 515.25 97.10 515.25 109.05
  C 515.25 116.97 516.19 120.08 521.86 125.00
  Q 522.14 125.25 521.76 125.25
  L 488.26 125.25
  Q 487.39 125.25 488.18 124.89
  Q 496.71 120.97 496.72 111.99
  Q 496.77 63.25 496.75 14.49
  Q 496.74 7.53 490.79 2.82
  Q 490.06 2.25 490.99 2.25
  L 522.50 2.25
  Q 523.48 2.25 522.62 2.73
  Z"
/>
<path d="
  M 219.81 126.35
  A 0.09 0.09 0.0 0 1 219.78 126.52
  C 206.54 125.85 196.45 122.15 187.99 111.63
  Q 177.97 99.16 177.99 82.00
  Q 178.03 47.12 178.01 12.25
  Q 178.01 6.69 173.81 3.29
  Q 173.15 2.75 174.00 2.75
  L 203.01 2.75
  Q 204.03 2.75 203.18 3.32
  C 198.95 6.15 197.50 9.18 197.50 14.50
  Q 197.50 53.89 197.51 93.25
  C 197.51 100.18 198.46 108.10 202.42 113.88
  Q 208.60 122.93 219.81 126.35
  Z"
/>
<path d="
  M 282.80 21.82
  Q 282.42 50.28 282.23 78.75
  C 282.14 93.04 281.06 104.47 270.05 114.80
  C 260.44 123.81 252.50 126.76 239.32 127.06
  Q 239.02 127.07 239.31 126.99
  C 253.55 123.20 262.53 112.09 262.60 97.18
  Q 262.79 58.10 262.71 19.00
  C 262.70 12.86 262.48 7.47 257.31 3.29
  Q 256.64 2.75 257.50 2.75
  L 287.25 2.75
  Q 288.23 2.75 287.42 3.31
  C 280.60 8.06 282.89 14.84 282.80 21.82
  Z"
/>
<path d="
  M 71.82 107.08
  C 93.57 103.10 111.10 88.33 115.98 66.70
  C 121.63 41.67 108.52 18.62 88.26 4.53
  A 0.16 0.16 0.0 0 1 88.42 4.25
  C 99.31 8.66 108.49 15.30 114.83 25.36
  C 140.25 65.71 119.25 119.12 71.81 127.20
  Q 71.23 127.30 71.24 127.88
  C 71.32 134.99 71.77 141.88 69.98 148.89
  C 67.21 159.71 66.09 171.81 64.23 182.08
  Q 64.01 183.31 63.74 182.09
  Q 59.79 163.83 55.45 145.73
  C 54.02 139.78 54.54 133.96 54.48 127.90
  Q 54.48 127.37 53.96 127.27
  C 19.97 120.70 -3.18 89.24 1.32 55.03
  C 4.17 33.34 14.56 13.59 35.98 5.43
  Q 36.97 5.06 36.10 5.67
  C 20.27 16.96 9.31 34.19 9.02 53.78
  C 8.62 81.67 27.51 100.85 53.86 107.14
  Q 54.41 107.27 54.42 106.70
  Q 54.65 96.58 54.56 86.78
  Q 54.52 82.32 50.47 81.40
  A 0.36 0.36 0.0 0 1 50.48 80.70
  Q 63.28 78.32 76.06 80.88
  A 0.35 0.35 0.0 0 1 76.10 81.55
  C 69.41 83.73 71.05 101.26 71.37 106.73
  Q 71.40 107.16 71.82 107.08
  Z"
/>
<path d="
  M 761.17 82.64
  A 0.31 0.30 -32.2 0 1 761.75 82.77
  L 761.75 126.48
  Q 761.75 127.03 761.31 126.70
  Q 753.07 120.54 743.40 123.00
  C 736.11 124.85 729.08 125.11 721.60 125.06
  Q 721.52 125.06 721.60 125.04
  C 740.16 119.19 753.05 99.54 761.17 82.64
  Z"
/>
<path d="
  M 336.56 190.45
  A 0.85 0.82 26.7 0 0 335.41 190.81
  Q 331.99 197.88 328.95 204.96
  Q 327.62 208.07 330.50 209.38
  Q 330.93 209.57 331.40 209.52
  Q 332.02 209.45 332.44 209.81
  Q 332.98 210.29 332.26 210.25
  C 329.32 210.10 326.96 210.60 325.28 213.29
  C 323.27 216.51 319.52 222.96 323.61 225.95
  A 0.30 0.30 0.0 0 1 323.43 226.49
  L 313.75 226.50
  Q 313.10 226.50 313.55 226.03
  Q 318.74 220.40 322.94 212.44
  Q 332.04 195.19 338.47 177.02
  A 0.39 0.39 0.0 0 1 339.20 177.00
  C 343.54 186.89 347.45 196.46 352.36 206.56
  C 355.99 214.01 357.16 221.26 364.67 225.81
  A 0.26 0.25 -28.9 0 1 364.53 226.28
  L 350.68 226.30
  Q 350.08 226.30 350.43 225.81
  C 353.62 221.44 347.17 209.44 340.86 210.55
  Q 334.73 211.63 340.81 209.51
  C 343.84 208.45 344.24 207.42 343.18 204.35
  C 342.40 202.09 338.36 191.39 336.56 190.45
  Z"
/>
<path d="
  M 413.45 216.89
  Q 413.57 199.70 413.55 182.50
  Q 413.54 179.95 411.20 177.52
  A 0.30 0.30 0.0 0 1 411.41 177.01
  L 426.72 176.88
  Q 426.79 176.88 426.77 176.94
  Q 426.72 177.08 426.68 177.21
  Q 426.66 177.28 426.58 177.30
  C 418.43 179.22 420.73 188.05 420.75 194.17
  C 420.77 197.72 422.50 199.24 425.76 199.79
  A 0.52 0.52 0.0 0 1 425.82 200.80
  C 418.64 202.93 420.72 213.95 420.77 219.66
  C 420.78 221.65 421.77 222.78 423.36 223.68
  A 0.56 0.56 0.0 0 1 423.08 224.73
  L 409.00 224.76
  Q 407.15 224.76 408.89 224.13
  C 412.50 222.83 413.43 220.76 413.45 216.89
  Z"
/>
<path d="
  M 515.15 207.91
  C 514.82 215.32 516.03 222.72 523.76 225.19
  Q 524.47 225.42 523.78 225.70
  Q 523.34 225.88 522.78 225.77
  C 514.60 224.17 507.46 218.19 507.49 209.46
  Q 507.53 196.80 507.48 184.09
  C 507.46 180.54 506.27 179.21 503.55 177.43
  Q 502.82 176.96 503.69 176.96
  L 518.05 176.96
  Q 518.88 176.96 518.20 177.45
  C 513.54 180.82 515.23 191.34 515.28 196.49
  C 515.32 201.29 519.05 200.46 522.29 201.52
  Q 523.96 202.06 522.21 201.95
  C 518.07 201.71 515.35 203.55 515.15 207.91
  Z"
/>
<path d="
  M 529.97 176.91
  L 544.62 176.99
  Q 545.25 177.00 545.25 177.62
  L 545.25 190.49
  Q 545.25 191.47 544.85 190.58
  C 541.72 183.69 536.63 180.17 529.89 177.33
  Q 528.86 176.90 529.97 176.91
  Z"
/>
<path d="
  M 602.54 189.52
  Q 602.43 204.95 602.46 220.50
  Q 602.46 224.08 605.69 225.26
  A 0.51 0.51 0.0 0 1 605.51 226.25
  L 596.30 226.24
  A 0.29 0.29 0.0 0 1 596.18 225.69
  Q 599.24 224.22 599.25 220.75
  Q 599.29 201.63 599.29 182.50
  Q 599.29 179.14 596.61 177.46
  A 0.30 0.30 0.0 0 1 596.77 176.91
  L 610.82 176.98
  Q 611.26 176.98 610.93 177.27
  L 608.59 179.29
  Q 607.97 179.83 608.48 180.47
  L 632.60 210.65
  A 0.24 0.24 0.0 0 0 633.02 210.50
  L 632.99 181.77
  Q 632.99 181.32 632.71 180.97
  Q 630.72 178.50 627.41 177.66
  Q 627.02 177.56 626.93 177.24
  Q 626.83 176.90 627.19 176.90
  L 638.79 176.99
  A 0.35 0.35 0.0 0 1 639.02 177.60
  C 637.08 179.29 636.52 181.42 636.52 184.14
  Q 636.48 206.88 636.50 229.56
  A 0.25 0.25 0.0 0 1 636.06 229.71
  L 603.19 189.29
  A 0.37 0.37 0.0 0 0 602.54 189.52
  Z"
/>
<path d="
  M 689.12 224.21
  Q 695.61 216.96 699.59 208.07
  Q 706.54 192.54 713.16 176.81
  A 0.20 0.20 0.0 0 1 713.52 176.81
  Q 721.97 196.62 730.95 216.23
  C 733.01 220.71 734.82 223.22 738.67 225.79
  A 0.28 0.27 -27.7 0 1 738.51 226.29
  L 724.46 226.29
  Q 723.85 226.29 724.33 225.91
  C 726.11 224.54 726.35 223.14 725.46 221.01
  C 724.18 217.93 722.90 214.00 720.23 211.91
  C 718.69 210.70 716.37 210.68 714.43 210.10
  Q 713.68 209.88 714.43 209.65
  L 716.78 208.91
  A 2.10 2.10 0.0 0 0 718.15 206.22
  C 717.46 204.21 712.25 190.40 710.81 190.44
  A 1.32 0.56 2.7 0 0 709.70 190.85
  Q 706.92 197.20 703.84 203.32
  C 702.60 205.80 702.37 209.55 706.32 209.54
  Q 706.57 209.54 706.67 209.78
  Q 706.72 209.92 706.77 210.06
  Q 706.83 210.25 706.64 210.24
  C 703.80 210.13 701.34 210.49 699.72 213.17
  C 697.60 216.68 694.16 222.27 697.56 225.80
  Q 698.24 226.50 697.27 226.50
  L 687.52 226.50
  Q 686.97 226.50 687.21 226.00
  C 687.60 225.22 688.64 224.75 689.12 224.21
  Z"
/>
<path d="
  M 441.91 199.36
  C 452.25 205.63 455.01 215.92 455.25 227.32
  A 0.35 0.35 0.0 0 1 454.57 227.42
  Q 448.93 206.74 428.47 200.41
  Q 428.02 200.27 428.47 200.14
  Q 433.89 198.58 437.55 195.05
  C 444.93 187.95 438.22 178.64 429.73 177.71
  A 0.19 0.19 0.0 0 1 429.71 177.33
  Q 438.16 175.66 443.55 180.56
  C 449.64 186.11 449.04 194.19 441.91 198.64
  Q 441.32 199.00 441.91 199.36
  Z"
/>
<path d="
  M 547.35 209.89
  Q 547.65 218.10 547.46 225.98
  Q 547.44 226.72 546.83 226.29
  C 542.99 223.52 535.73 226.25 531.10 226.41
  A 0.29 0.29 0.0 0 1 531.02 225.84
  C 538.60 223.94 543.44 216.21 546.83 209.77
  Q 547.31 208.85 547.35 209.89
  Z"
/>
</g>
</svg>
